client/public/img/game/shared/loot/12g.svg

<?xml version="1.0" encoding="UTF-8" standalone="no"?>
<!-- Created with Inkscape (http://www.inkscape.org/) -->

<svg
   width="72"
   height="49.846001"
   viewBox="0 0 19.05 13.188422"
   version="1.1"
   id="svg5"
   xmlns="http://www.w3.org/2000/svg"
   xmlns:svg="http://www.w3.org/2000/svg">
  <defs
     id="defs2" />
  <g
     id="layer1">
    <rect
       style="fill:#cc2424;fill-opacity:1;stroke:#7a1616;stroke-width:0.711811;stroke-linecap:round;stroke-linejoin:round;stroke-miterlimit:10;stroke-opacity:1"
       id="rect846"
       width="18.338188"
       height="12.47665"
       x="0.35590601"
       y="0.35590601"
       ry="1.0990384"
       rx="1.0990384" />
    <g
       aria-label="12G"
       id="text6858"
       style="font-size:7.96888px;line-height:1.25;font-family:Jura;-inkscape-font-specification:Jura;letter-spacing:0px;word-spacing:0px;fill:#661212;stroke-width:0.199221">
      <path
         d="M 4.2456316,9.3434935 V 5.0004538 L 3.3292104,5.319209 2.9307663,4.4027878 4.4050092,3.7652773 H 5.68003 v 5.5782162 z"
         style="font-family:'Russo One';-inkscape-font-specification:'Russo One'"
         id="path839" />
      <path
         d="m 10.620726,5.518431 q 0,0.6773548 -0.573759,1.1714254 Q 9.8716512,6.8412651 9.6644603,6.9926738 L 7.9511511,8.2278502 H 10.620726 V 9.3434935 H 6.3175307 V 7.8294062 L 9.1863275,5.7574974 v -0.398444 q 0,-0.4781328 -0.4781328,-0.4781328 H 6.4769083 V 3.7652773 h 2.5500416 q 0.8367324,0 1.2112701,0.3825063 0.382506,0.3745374 0.382506,1.2112698 z"
         style="font-family:'Russo One';-inkscape-font-specification:'Russo One'"
         id="path841" />
      <path
         d="m 16.11924,9.2239603 q -1.864718,0.199222 -3.426619,0.199222 -0.78095,0 -1.147519,-0.3665685 Q 11.178534,8.6900453 11.178534,7.909095 V 5.3590534 q 0,-0.8367324 0.374537,-1.2112698 0.382506,-0.3825063 1.219239,-0.3825063 h 2.868797 v 1.1156433 h -2.550042 q -0.478133,0 -0.478133,0.4781328 V 7.909095 q 0,0.1832843 0.103596,0.2948486 0.111564,0.1035954 0.294848,0.1035954 0.916422,0 1.673465,-0.039844 V 7.112207 H 13.648887 V 6.1559414 h 2.470353 z"
         style="font-family:'Russo One';-inkscape-font-specification:'Russo One'"
         id="path843" />
    </g>
    <circle
       style="fill:none;fill-opacity:1;stroke:#7a1616;stroke-width:0.366346;stroke-linecap:round;stroke-linejoin:round;stroke-miterlimit:4;stroke-dasharray:none;stroke-opacity:1"
       id="path9697"
       cx="16.851923"
       cy="2.1980765"
       r="0.7326923" />
    <circle
       style="fill:none;fill-opacity:1;stroke:#7a1616;stroke-width:0.366346;stroke-linecap:round;stroke-linejoin:round;stroke-miterlimit:4;stroke-dasharray:none;stroke-opacity:1"
       id="path9697-6"
       cx="16.851923"
       cy="10.990384"
       r="0.7326923" />
    <circle
       style="fill:none;fill-opacity:1;stroke:#7a1616;stroke-width:0.366346;stroke-linecap:round;stroke-linejoin:round;stroke-miterlimit:4;stroke-dasharray:none;stroke-opacity:1"
       id="path9697-7"
       cx="2.1980765"
       cy="10.990384"
       r="0.7326923" />
    <circle
       style="fill:none;fill-opacity:1;stroke:#7a1616;stroke-width:0.366346;stroke-linecap:round;stroke-linejoin:round;stroke-miterlimit:4;stroke-dasharray:none;stroke-opacity:1"
       id="path9697-5"
       cx="2.1980765"
       cy="2.1980765"
       r="0.7326923" />
  </g>
</svg>

<svg xmlns="http://www.w3.org/2000/svg" width="72" height="49.846" viewBox="0 0 19.05 13.188"><rect width="18.338" height="12.477" x=".356" y=".356" rx="1.099" ry="1.099" style="fill:#cc2424;fill-opacity:1;stroke:#7a1616;stroke-width:.711811;stroke-linecap:round;stroke-linejoin:round;stroke-miterlimit:10;stroke-opacity:1"/><g aria-label="12G" style="font-size:7.96888px;line-height:1.25;font-family:Jura;-inkscape-font-specification:Jura;letter-spacing:0;word-spacing:0;fill:#661212;stroke-width:.199221"><path d="M4.246 9.343V5l-.917.32-.398-.917 1.474-.638H5.68v5.578zM10.62 5.518q0 .678-.573 1.172-.175.151-.383.303L7.951 8.228h2.67v1.115H6.318V7.83l2.868-2.072V5.36q0-.478-.478-.478H6.477V3.765h2.55q.837 0 1.211.383.383.374.383 1.211zM16.12 9.224q-1.865.2-3.427.2-.781 0-1.148-.367t-.366-1.148V5.36q0-.837.374-1.211.383-.383 1.22-.383h2.868v1.116h-2.55q-.478 0-.478.478v2.55q0 .183.104.295.111.104.294.104.917 0 1.674-.04V7.112h-1.036v-.956h2.47z" style="font-family:&quot;Russo One&quot;;-inkscape-font-specification:&quot;Russo One&quot;"/></g><circle cx="16.852" cy="2.198" r=".733" style="fill:none;fill-opacity:1;stroke:#7a1616;stroke-width:.366346;stroke-linecap:round;stroke-linejoin:round;stroke-miterlimit:4;stroke-dasharray:none;stroke-opacity:1"/><circle cx="16.852" cy="10.99" r=".733" style="fill:none;fill-opacity:1;stroke:#7a1616;stroke-width:.366346;stroke-linecap:round;stroke-linejoin:round;stroke-miterlimit:4;stroke-dasharray:none;stroke-opacity:1"/><circle cx="2.198" cy="10.99" r=".733" style="fill:none;fill-opacity:1;stroke:#7a1616;stroke-width:.366346;stroke-linecap:round;stroke-linejoin:round;stroke-miterlimit:4;stroke-dasharray:none;stroke-opacity:1"/><circle cx="2.198" cy="2.198" r=".733" style="fill:none;fill-opacity:1;stroke:#7a1616;stroke-width:.366346;stroke-linecap:round;stroke-linejoin:round;stroke-miterlimit:4;stroke-dasharray:none;stroke-opacity:1"/></svg>
